X: 34362
T: Reunion, The
R: reel
M: 4/4
K: Aminor
|:EAAA cBcd|eaag agef|(3gfe dB edBA|dBAG AGED|
EAA2 cBcd|eaag agef|g3e dBB2|1 cBAG A3G:|2 cBAG A3z||
|:aAA gAA aA|A gAA agef|gedB Aged|BAge dBAG|
EAAA cBcd|eaag agef|g3e dBB2|1 cBAG Az3:|2 cBAG A3G||

